apps/scalable/application-x-deb.svg

<svg xmlns="http://www.w3.org/2000/svg" style="isolation:isolate" width="256" height="256"><defs><filter id="a" width="270.648" height="254.338" x="-7.32" y="2.95" filterUnits="userSpaceOnUse"><feGaussianBlur xmlns="http://www.w3.org/2000/svg" in="SourceGraphic" stdDeviation="4.294"/><feOffset xmlns="http://www.w3.org/2000/svg" dy="4" result="pf_100_offsetBlur"/><feFlood xmlns="http://www.w3.org/2000/svg" flood-opacity=".4"/><feComposite xmlns="http://www.w3.org/2000/svg" in2="pf_100_offsetBlur" operator="in" result="pf_100_dropShadow"/><feBlend xmlns="http://www.w3.org/2000/svg" in="SourceGraphic" in2="pf_100_dropShadow"/></filter></defs><g filter="url(#a)"><linearGradient id="b" x1=".095" x2=".986" y1="-.048" y2=".956" gradientTransform="matrix(244.648 0 0 228.338 5.676 11.947)" gradientUnits="userSpaceOnUse"><stop offset="0%" stop-color="#c43a86"/><stop offset="100%" stop-color="#d85e77"/></linearGradient><path fill="url(#b)" d="M165.685 11.947c74.055 0 84.639 10.557 84.639 84.544v59.251c0 73.986-10.584 84.543-84.639 84.543h-75.37c-74.055 0-84.639-10.557-84.639-84.543V96.491c0-73.987 10.584-84.544 84.639-84.544h75.37z"/></g><path fill="#FFF" d="M140.992 130.878c-2.744.037.516 1.411 4.1 1.964a36.534 36.534 0 0 0 2.687-2.315c-2.228.546-4.498.559-6.787.351zM155.718 127.206c1.64-2.257 2.83-4.726 3.251-7.279-.369 1.818-1.352 3.389-2.285 5.049-5.13 3.231-.485-1.917-.004-3.877-5.514 6.949-.76 4.166-.962 6.107zM161.16 113.055c.334-4.942-.972-3.377-1.411-1.495.511.268.917 3.487 1.411 1.495zM130.581 45.499c1.465.261 3.166.463 2.922.814 1.609-.355 1.971-.674-2.922-.814zM133.505 46.313l-1.031.215.961-.089.07-.126z"/><path fill="#FFF" d="M179.185 114.929c.165 4.438-1.295 6.594-2.616 10.407l-2.375 1.182c-1.941 3.772.193 2.395-1.197 5.394-3.035 2.695-9.196 8.429-11.168 8.955-1.442-.031.975-1.701 1.291-2.353-4.058 2.784-3.257 4.18-9.463 5.876l-.18-.406c-15.301 7.2-36.557-7.066-36.278-26.529-.161 1.234-.464.925-.802 1.421-.79-10.012 4.625-20.069 13.758-24.181 8.932-4.42 19.404-2.609 25.798 3.359-3.512-4.603-10.509-9.483-18.795-9.032-8.12.133-15.719 5.292-18.254 10.896-4.159 2.618-4.643 10.096-6.455 11.466-2.441 17.927 4.587 25.67 16.477 34.782 1.866 1.26.525 1.453.775 2.412-3.949-1.848-7.564-4.64-10.54-8.058 1.58 2.308 3.283 4.553 5.485 6.316-3.727-1.258-8.703-9.024-10.152-9.34 6.42 11.495 26.042 20.159 36.323 15.859-4.757.177-10.799.098-16.14-1.877-2.25-1.155-5.298-3.545-4.752-3.991 14.026 5.236 28.511 3.964 40.645-5.762 3.09-2.407 6.462-6.497 7.437-6.552-1.467 2.207.252 1.061-.876 3.01 3.071-4.961-1.339-2.02 3.178-8.567l1.668 2.296c-.625-4.122 5.115-9.121 4.531-15.635 1.317-1.991 1.468 2.146.072 6.727 1.938-5.083.512-5.9 1.008-10.096.535 1.411 1.246 2.908 1.608 4.398-1.264-4.914 1.291-8.271 1.926-11.128-.628-.275-1.948 2.171-2.253-3.629.046-2.52.703-1.321.955-1.942-.493-.284-1.791-2.217-2.579-5.922.567-.872 1.528 2.258 2.307 2.385-.502-2.945-1.363-5.191-1.4-7.452-2.277-4.758-.806.635-2.65-2.043-2.425-7.557 2.009-1.754 2.31-5.185 3.67 5.317 5.763 13.565 6.727 16.979-.735-4.164-1.92-8.199-3.369-12.103 1.119.473-1.798-8.565 1.453-2.58-3.47-12.757-14.838-24.678-25.298-30.269 1.276 1.17 2.891 2.639 2.314 2.871-5.206-3.095-4.291-3.34-5.037-4.647-4.234-1.725-4.516.141-7.318.003-7.99-4.239-9.529-3.789-16.882-6.442l.335 1.565c-5.292-1.763-6.167.665-11.885.004-.347-.27 1.833-.984 3.63-1.243-5.118.676-4.879-1.011-9.886.185 1.233-.865 2.54-1.44 3.856-2.175-4.172.254-9.963 2.429-8.176.448-6.806 3.039-18.894 7.302-25.677 13.663l-.213-1.426C89.278 60.954 78.832 68.366 78 73.202l-.832.193c-1.615 2.738-2.664 5.841-3.946 8.657-2.114 3.605-3.1 1.388-2.799 1.954-4.16 8.435-6.231 15.521-8.014 21.337 1.271 1.901.031 11.447.511 19.086-2.087 37.736 26.483 74.371 57.712 82.828 4.578 1.64 11.383 1.581 17.173 1.743-6.829-1.954-7.711-1.034-14.368-3.354-4.799-2.263-5.85-4.844-9.252-7.796l1.347 2.379c-6.668-2.36-3.878-2.92-9.304-4.638l1.438-1.875c-2.162-.166-5.725-3.641-6.699-5.571l-2.365.093c-2.84-3.501-4.355-6.03-4.243-7.99l-.765 1.363c-.865-1.486-10.453-13.148-5.479-10.433-.924-.841-2.153-1.372-3.484-3.795l1.012-1.155c-2.39-3.081-4.405-7.028-4.251-8.343 1.277 1.723 2.162 2.046 3.04 2.342-6.045-14.996-6.384-.825-10.96-15.264l.966-.077c-.74-1.123-1.194-2.333-1.789-3.525l.423-4.197c-4.35-5.026-1.216-21.39-.586-30.363.431-3.648 3.631-7.533 6.061-13.625l-1.48-.254c2.832-4.937 16.167-19.836 22.347-19.072 2.992-3.758-.596-.014-1.182-.959 6.574-6.801 8.641-4.805 13.077-6.03 4.781-2.838-4.106 1.11-1.839-1.082 8.271-2.11 5.86-4.801 16.647-5.872 1.139.647-2.639.999-3.587 1.839 6.888-3.373 21.801-2.603 31.492 1.87 11.236 5.255 23.868 20.781 24.368 35.39l.567.152c-.286 5.808.889 12.525-1.152 18.693l1.38-2.922z" opacity=".75"/><path fill="#FFF" d="M111.031 134.644l-.387 1.923c1.805 2.452 3.238 5.108 5.54 7.018-1.657-3.231-2.886-4.566-5.153-8.941zM115.295 134.478c-.955-1.058-1.518-2.329-2.153-3.593.606 2.225 1.848 4.137 2.999 6.084l-.846-2.491zM190.759 118.075l-.403 1.014a48.787 48.787 0 0 1-4.785 15.263c2.704-5.083 4.447-10.643 5.188-16.277zM131.126 44.182c1.854-.678 4.559-.373 6.532-.819-2.568.215-5.123.343-7.645.665l1.113.154zM65.972 78.828c.428 3.957-2.975 5.494.753 2.882 2.003-4.507-.778-1.243-.753-2.882zM61.586 97.149c.861-2.64 1.016-4.223 1.345-5.753-2.375 3.038-1.095 3.686-1.345 5.753z"/><g opacity=".4"><linearGradient id="c" x1=".517" x2=".517" y2="1"><stop offset="0%" stop-color="#fff"/><stop offset="12.5%" stop-opacity=".098" stop-color="#fff"/><stop offset="92.5%" stop-opacity=".098"/><stop offset="100%" stop-opacity=".498"/></linearGradient><path fill="none" stroke="url(#c)" stroke-linecap="round" stroke-linejoin="round" stroke-width="4.077" d="M165.685 11.947c74.055 0 84.639 10.557 84.639 84.544v59.251c0 73.986-10.584 84.543-84.639 84.543h-75.37c-74.055 0-84.639-10.557-84.639-84.543V96.491c0-73.987 10.584-84.544 84.639-84.544h75.37z" vector-effect="non-scaling-stroke"/></g><g opacity=".1"><path fill="#FFF" d="M5.676 126.116v29.626c0 73.986 10.584 84.543 84.639 84.543h75.37c74.055 0 84.639-10.557 84.639-84.543v-29.626H5.676z"/></g><g opacity=".2"><path fill="#FFF" d="M128 11.947v228.338h37.685c74.055 0 84.639-10.557 84.639-84.543V96.491c0-73.987-10.584-84.544-84.639-84.544H128z"/></g></svg>

<svg xmlns="http://www.w3.org/2000/svg" style="isolation:isolate" width="256" height="256" viewBox="0 0 256 256">
 <defs>
  <filter id="8zWLe77PS2sQejgSCzDbPOPcMeoEYyxo" width="270.648" height="254.338" x="-7.32" y="2.95" filterUnits="userSpaceOnUse">
   <feGaussianBlur xmlns="http://www.w3.org/2000/svg" in="SourceGraphic" stdDeviation="4.294"/>
   <feOffset xmlns="http://www.w3.org/2000/svg" dx="0" dy="4" result="pf_100_offsetBlur"/>
   <feFlood xmlns="http://www.w3.org/2000/svg" flood-opacity=".4"/>
   <feComposite xmlns="http://www.w3.org/2000/svg" in2="pf_100_offsetBlur" operator="in" result="pf_100_dropShadow"/>
   <feBlend xmlns="http://www.w3.org/2000/svg" in="SourceGraphic" in2="pf_100_dropShadow" mode="normal"/>
  </filter>
 </defs>
 <g filter="url(#8zWLe77PS2sQejgSCzDbPOPcMeoEYyxo)">
  <linearGradient id="_lgradient_56" x1=".095" x2=".986" y1="-.048" y2=".956" gradientTransform="matrix(244.648,0,0,228.338,5.676,11.947)" gradientUnits="userSpaceOnUse">
   <stop offset="0%" style="stop-color:rgb(196,58,134)"/>
   <stop offset="100%" style="stop-color:rgb(216,94,119)"/>
  </linearGradient>
  <path fill="url(#_lgradient_56)" d="M 165.685 11.947 C 239.74 11.947 250.324 22.504 250.324 96.491 L 250.324 155.742 C 250.324 229.728 239.74 240.285 165.685 240.285 L 90.315 240.285 C 16.26 240.285 5.676 229.728 5.676 155.742 L 5.676 96.491 C 5.676 22.504 16.26 11.947 90.315 11.947 L 165.685 11.947 Z"/>
 </g>
 <g>
  <path fill="#FFFFFF" d="M 140.992 130.878 C 138.248 130.915 141.508 132.289 145.092 132.842 C 146.085 132.067 146.978 131.288 147.779 130.527 C 145.551 131.073 143.281 131.086 140.992 130.878 Z"/>
  <path fill="#FFFFFF" d="M 155.718 127.206 C 157.358 124.949 158.548 122.48 158.969 119.927 C 158.6 121.745 157.617 123.316 156.684 124.976 C 151.554 128.207 156.199 123.059 156.68 121.099 C 151.166 128.048 155.92 125.265 155.718 127.206 Z"/>
  <path fill="#FFFFFF" d="M 161.16 113.055 C 161.494 108.113 160.188 109.678 159.749 111.56 C 160.26 111.828 160.666 115.047 161.16 113.055 Z"/>
  <path fill="#FFFFFF" d="M 130.581 45.499 C 132.046 45.76 133.747 45.962 133.503 46.313 C 135.112 45.958 135.474 45.639 130.581 45.499 Z"/>
  <path fill="#FFFFFF" d="M 133.505 46.313 L 132.474 46.528 L 133.435 46.439 L 133.505 46.313 Z"/>
  <g opacity=".75">
   <path fill="#FFFFFF" d="M 179.185 114.929 C 179.35 119.367 177.89 121.523 176.569 125.336 L 174.194 126.518 C 172.253 130.29 174.387 128.913 172.997 131.912 C 169.962 134.607 163.801 140.341 161.829 140.867 C 160.387 140.836 162.804 139.166 163.12 138.514 C 159.062 141.298 159.863 142.694 153.657 144.39 L 153.477 143.984 C 138.176 151.184 116.92 136.918 117.199 117.455 C 117.038 118.689 116.735 118.38 116.397 118.876 C 115.607 108.864 121.022 98.807 130.155 94.695 C 139.087 90.275 149.559 92.086 155.953 98.054 C 152.441 93.451 145.444 88.571 137.158 89.022 C 129.038 89.155 121.439 94.314 118.904 99.918 C 114.745 102.536 114.261 110.014 112.449 111.384 C 110.008 129.311 117.036 137.054 128.926 146.166 C 130.792 147.426 129.451 147.619 129.701 148.578 C 125.752 146.73 122.137 143.938 119.161 140.52 C 120.741 142.828 122.444 145.073 124.646 146.836 C 120.919 145.578 115.943 137.812 114.494 137.496 C 120.914 148.991 140.536 157.655 150.817 153.355 C 146.06 153.532 140.018 153.453 134.677 151.478 C 132.427 150.323 129.379 147.933 129.925 147.487 C 143.951 152.723 158.436 151.451 170.57 141.725 C 173.66 139.318 177.032 135.228 178.007 135.173 C 176.54 137.38 178.259 136.234 177.131 138.183 C 180.202 133.222 175.792 136.163 180.309 129.616 L 181.977 131.912 C 181.352 127.79 187.092 122.791 186.508 116.277 C 187.825 114.286 187.976 118.423 186.58 123.004 C 188.518 117.921 187.092 117.104 187.588 112.908 C 188.123 114.319 188.834 115.816 189.196 117.306 C 187.932 112.392 190.487 109.035 191.122 106.178 C 190.494 105.903 189.174 108.349 188.869 102.549 C 188.915 100.029 189.572 101.228 189.824 100.607 C 189.331 100.323 188.033 98.39 187.245 94.685 C 187.812 93.813 188.773 96.943 189.552 97.07 C 189.05 94.125 188.189 91.879 188.152 89.618 C 185.875 84.86 187.346 90.253 185.502 87.575 C 183.077 80.018 187.511 85.821 187.812 82.39 C 191.482 87.707 193.575 95.955 194.539 99.369 C 193.804 95.205 192.619 91.17 191.17 87.266 C 192.289 87.739 189.372 78.701 192.623 84.686 C 189.153 71.929 177.785 60.008 167.325 54.417 C 168.601 55.587 170.216 57.056 169.639 57.288 C 164.433 54.193 165.348 53.948 164.602 52.641 C 160.368 50.916 160.086 52.782 157.284 52.644 C 149.294 48.405 147.755 48.855 140.402 46.202 L 140.737 47.767 C 135.445 46.004 134.57 48.432 128.852 47.771 C 128.505 47.501 130.685 46.787 132.482 46.528 C 127.364 47.204 127.603 45.517 122.596 46.713 C 123.829 45.848 125.136 45.273 126.452 44.538 C 122.28 44.792 116.489 46.967 118.276 44.986 C 111.47 48.025 99.382 52.288 92.599 58.649 L 92.386 57.223 C 89.278 60.954 78.832 68.366 78 73.202 L 77.168 73.395 C 75.553 76.133 74.504 79.236 73.222 82.052 C 71.108 85.657 70.122 83.44 70.423 84.006 C 66.263 92.441 64.192 99.527 62.409 105.343 C 63.68 107.244 62.44 116.79 62.92 124.429 C 60.833 162.165 89.403 198.8 120.632 207.257 C 125.21 208.897 132.015 208.838 137.805 209 C 130.976 207.046 130.094 207.966 123.437 205.646 C 118.638 203.383 117.587 200.802 114.185 197.85 L 115.532 200.229 C 108.864 197.869 111.654 197.309 106.228 195.591 L 107.666 193.716 C 105.504 193.55 101.941 190.075 100.967 188.145 L 98.602 188.238 C 95.762 184.737 94.247 182.208 94.359 180.248 L 93.594 181.611 C 92.729 180.125 83.141 168.463 88.115 171.178 C 87.191 170.337 85.962 169.806 84.631 167.383 L 85.643 166.228 C 83.253 163.147 81.238 159.2 81.392 157.885 C 82.669 159.608 83.554 159.931 84.432 160.227 C 78.387 145.231 78.048 159.402 73.472 144.963 L 74.438 144.886 C 73.698 143.763 73.244 142.553 72.649 141.361 L 73.072 137.164 C 68.722 132.138 71.856 115.774 72.486 106.801 C 72.917 103.153 76.117 99.268 78.547 93.176 L 77.067 92.922 C 79.899 87.985 93.234 73.086 99.414 73.85 C 102.406 70.092 98.818 73.836 98.232 72.891 C 104.806 66.09 106.873 68.086 111.309 66.861 C 116.09 64.023 107.203 67.971 109.47 65.779 C 117.741 63.669 115.33 60.978 126.117 59.907 C 127.256 60.554 123.478 60.906 122.53 61.746 C 129.418 58.373 144.331 59.143 154.022 63.616 C 165.258 68.871 177.89 84.397 178.39 99.006 L 178.957 99.158 C 178.671 104.966 179.846 111.683 177.805 117.851 L 179.185 114.929 Z"/>
  </g>
  <path fill="#FFFFFF" d="M 111.031 134.644 L 110.644 136.567 C 112.449 139.019 113.882 141.675 116.184 143.585 C 114.527 140.354 113.298 139.019 111.031 134.644 Z"/>
  <path fill="#FFFFFF" d="M 115.295 134.478 C 114.34 133.42 113.777 132.149 113.142 130.885 C 113.748 133.11 114.99 135.022 116.141 136.969 L 115.295 134.478 Z"/>
  <path fill="#FFFFFF" d="M 190.759 118.075 L 190.356 119.089 C 189.618 124.339 188.018 129.534 185.571 134.352 C 188.275 129.269 190.018 123.709 190.759 118.075 Z"/>
  <path fill="#FFFFFF" d="M 131.126 44.182 C 132.98 43.504 135.685 43.809 137.658 43.363 C 135.09 43.578 132.535 43.706 130.013 44.028 L 131.126 44.182 Z"/>
  <path fill="#FFFFFF" d="M 65.972 78.828 C 66.4 82.785 62.997 84.322 66.725 81.71 C 68.728 77.203 65.947 80.467 65.972 78.828 Z"/>
  <path fill="#FFFFFF" d="M 61.586 97.149 C 62.447 94.509 62.602 92.926 62.931 91.396 C 60.556 94.434 61.836 95.082 61.586 97.149 Z"/>
 </g>
 <g opacity=".4">
  <linearGradient id="_lgradient_57" x1=".517" x2=".517" y1="0" y2="1">
   <stop offset="0%" style="stop-color:rgb(255,255,255)"/>
   <stop offset="12.5%" stop-opacity=".098" style="stop-color:rgb(255,255,255)"/>
   <stop offset="92.5%" stop-opacity=".098" style="stop-color:rgb(0,0,0)"/>
   <stop offset="100%" stop-opacity=".498" style="stop-color:rgb(0,0,0)"/>
  </linearGradient>
  <path fill="none" stroke="url(#_lgradient_57)" stroke-linecap="round" stroke-linejoin="round" stroke-width="4.077" d="M 165.685 11.947 C 239.74 11.947 250.324 22.504 250.324 96.491 L 250.324 155.742 C 250.324 229.728 239.74 240.285 165.685 240.285 L 90.315 240.285 C 16.26 240.285 5.676 229.728 5.676 155.742 L 5.676 96.491 C 5.676 22.504 16.26 11.947 90.315 11.947 L 165.685 11.947 Z" vector-effect="non-scaling-stroke"/>
 </g>
 <g opacity=".1">
  <path fill="#FFFFFF" d="M 5.676 126.116 L 5.676 155.742 C 5.676 229.728 16.26 240.285 90.315 240.285 L 165.685 240.285 C 239.74 240.285 250.324 229.728 250.324 155.742 L 250.324 126.116 L 5.676 126.116 Z"/>
 </g>
 <g opacity=".2">
  <path fill="#FFFFFF" d="M 128 11.947 L 128 240.285 L 165.685 240.285 C 239.74 240.285 250.324 229.728 250.324 155.742 L 250.324 96.491 C 250.324 22.504 239.74 11.947 165.685 11.947 L 128 11.947 Z"/>
 </g>
</svg>
